X: 16530
T: Halley's Comet
R: reel
M: 4/4
K: Gmajor
d|:gfed edBA|G2BG DGBd|edgd edef|gbaf gfed|
gfed edBA|G2BG DGBD|DEGA B2Bd|gedc BGG2:|
|:Bddcd4|Bdef gfed|Bdgd edef|gbaf gfed|
Bddcd4|Bdef gfed|DEGA B2Bd|gedc BGG2:|

